!!!!SEGMENT: pl-kk--kk-i-111--007_anonim--deo-gratias-dominicale.krn
!!!cenid: 18xx:2570
!!!COM: Anonim
!!!COM-rismID: pe30004985
!!!CDT:
!!!CNT:
!!!OTL: Deo gratias
!!!PDT: 1824
!!!AGN: Sacred
!!!SMS-siglum: PL-Kk
!!!SMS-shelfmark: Kk.I.111
!!!SMS-shelfwork: 007 W
!!!SMS-variant:
!!!SMS-altvar:
!!!NIFC-rismSourceID: 1001156407
!!!NIFC-rismChildID: 1001157684
!!!NIFC-islandoraID: pl-kk:3371
!!!URL-pdf-islandora: https://repozytorium.nifc.pl/islandora/object/pl-kk%3A3371/datastream/PDF/view
!!!URL-scan: https://polish.musicsources.pl/pl/lokalizacje/galeria/rekopisy/5747 @EN{Scan on Polish Music Sources Website} @PL{Skany w portalu Dziedzictwo Muzyki Polskiej w otwartym dostępie}
!!!ONB-nifc: UWAGA: A, T1, T2. Podział na poszególne Deo gratias. A: skan 0003 (m.in)
!!!AIN: 1 alto 2 tenor
!!!key:
**kern	**text	**kern	**text	**kern	**text
*part3	*part3	*part2	*part2	*part1	*part1
*staff3	*staff3	*staff2	*staff2	*staff1	*staff1
*Itenor	*	*Itenor	*	*Ialto	*
*I"Tenore Vagante.	*	*I"Tenore Chorale.	*	*I"Alto.	*
*I'T 2	*	*I'T 1	*	*I'A	*
*clefC4	*	*clefC4	*	*clefC3	*
*k[]	*	*k[]	*	*k[]	*
*G:	*	*G:	*	*G:	*
*M2/1	*	*M2/1	*	*M2/1	*
*met(C|)	*	*met(C|)	*	*met(C|)	*
=1-	=1-	=1-	=1-	=1-	=1-
*all\right	*	*all\right	*	*all\right	*
*2\right	*	*	*	*	*
!	!	!LO:TX:t=P:problem=kreska pseudotaktowa	!	!LO:N:vis=1	!
2.B\	De-	1G/	De-	2r	.
.	.	.	.	1g\	De-
!LO:TX:t=P:problem=kreska pseudotaktowa	!	!	!	!	!
4c\	.	.	.	.	.
!LO:TX:t=P:problem=kreska pseudotaktowa	!	!LO:TX:t=P:problem=kreska pseudotaktowa	!	!	!
1d\	-o	1A\	.	.	.
*	*	*	*	*2\right	*
!	!	!	!	!LO:TX:t=P:problem=kreska pseudotaktowa	!
.	.	.	.	2f#X\	-o
=2-	=2-	=2-	=2-	=2-	=2-
!	!	!LO:TX:t=P:problem=kreska pseudotaktowa	!	!	!
2B\	.	0G/	-o	2g\	gra-
1c\	gra-	.	.	1e\	.
!	!	!	!	!LO:TX:t=P:problem=kreska pseudotaktowa	!
4B\	.	.	.	2d\	-ti-
!LO:TX:t=P:problem=kreska pseudotaktowa	!	!	!	!	!
4A\	.	.	.	.	.
=3-	=3-	=3-	=3-	=3-	=3-
!	!	!LO:TX:t=P:problem=kreska pseudotaktowa	!	!LO:TX:t=P:problem=kreska pseudotaktowa	!
2G/	.	1D/	.	1d\	-as
!LO:TX:t=P:problem=kreska pseudotaktowa	!	!	!	!	!
2A/	.	.	.	.	.
!LO:TX:t=P::problem=kreska pseudotaktowa&colon;między nutą a kropką	!	!LO:TX:t=P:problem=kreska pseudotaktowa	!	!	!
1A\	.	1F/	.	2r	.
.	.	.	.	1d\	De-
=4-	=4-	=4-	=4-	=4-	=4-
!LO:N:xstem:cue	!	!LO:TX:t=P:problem=kreska pseudotaktowa	!	!	!
4A\	.	1E/	.	.	.
4G/	.	.	.	.	.
!	!	!	!	!LO:TX:t=P:problem=kreska pseudotaktowa	!
4F/	.	.	.	2c#X\	-o
!LO:TX:t=P:problem=kreska pseudotaktowa	!	!	!	!	!
4E/	-ti	.	.	.	.
!	!	!LO:TX:t=P:problem=kreska pseudotaktowa	!	!	!
2D/	as.	1D/	.	4d\	.
.	.	.	.	4e\	.
!LO:TX:t=P:problem=kreska pseudotaktowa	!	!	!	!	!
2d\	De-	.	.	4fny\	.
!	!	!	!	!LO:TX:t=P:problem=kreska pseudotaktowa	!
.	.	.	.	4g\	.
=5-	=5-	=5-	=5-	=5-	=5-
!	!	!LO:TX:t=P:problem=kreska pseudotaktowa	!	!	!
2c\	.	1E/	gra-	2a\	gra-
!LO:TX:t=P:problem=kreska pseudotaktowa	!	!	!	!LO:TX:t=P:problem=kreska pseudotaktowa	!
2A/	.	.	.	2e\	.
!LO:TX:t=P:problem=kreska pseudotaktowa	!	!LO:TX:t=P:problem=kreska pseudotaktowa	!	!	!
1A\	-o	1F/	.	2f\	.
!	!	!	!	!LO:TX:t=P:problem=kreska pseudotaktowa	!
.	.	.	.	2a\	.
=6-	=6-	=6-	=6-	=6-	=6-
!LO:TX:t=P:problem=kreska pseudotaktowa	!	!LO:TX:t=P:problem=kreska pseudotaktowa	!	!	!
0c\	gra-	1G/	.	2e\	.
!	!	!	!	!LO:TX:t=P:problem=kreska pseudotaktowa	!
.	.	.	.	2g\	.
!	!	!LO:TX:t=P:problem=kreska pseudotaktowa	!	!LO:TX:t=P:problem=kreska pseudotaktowa	!
.	.	1A\	.	1fn\	.
=7-	=7-	=7-	=7-	=7-	=7-
!	!	!LO:TX:t=P:problem=kreska pseudotaktowa	!	!	!
2c\	.	1G/	.	1.d\	.
!LO:TX:t=P:problem=kreska pseudotaktowa	!	!	!	!	!
2B\	.	.	.	.	.
!LO:TX:t=P:problem=kreska pseudotaktowa	!	!	!	!	!
1A\	.	2.F#X/	.	.	.
!	!	!	!	!LO:TX:t=P:problem=kreska pseudotaktowa	!
.	.	.	.	2d\	-ti-
!	!	!LO:TX:t=P:problem=kreska pseudotaktowa	!	!	!
.	.	4F#/	-ti-	.	.
=8-	=8-	=8-	=8-	=8-	=8-
!	!	!LO:TX:t=P:problem=kreska pseudotaktowa	!	!	!
2B\	.	0G/	-as.	2d\	-as
!LO:TX:t=P:problem=kreska pseudotaktowa	!	!	!	!LO:TX:t=P:problem=kreska pseudotaktowa	!
2c\	.	.	.	2e\	De-
1.c\	.	.	.	2d\	-o
!	!	!	!	!LO:TX:t=P:problem=kreska pseudotaktowa	!
.	.	.	.	2cny\	.
=9-	=9-	=9-	=9-	=9-	=9-
.	.	[0G/;l	.	2B/	gra-
!LO:TX:t=P:problem=kreska pseudotaktowa	!	!	!	!LO:TX:t=P:problem=kreska pseudotaktowa	!
2B\	.	.	.	2d/	.
2e\	.	.	.	2c/	.
!LO:TX:t=P:problem=kreska pseudotaktowa	!	!	!	!LO:TX:t=P:problem=kreska pseudotaktowa	!
2d\	.	.	.	2B/	.
=10-	=10-	=10-	=10-	=10-	=10-
2c\	.	0G/]	.	2.e\	.
4B\	.	.	.	.	.
!LO:TX:t=P:problem=kreska pseudotaktowa	!	!	!	!LO:TX:t=P:problem=kreska pseudotaktowa	!
4A\	-ti-	.	.	4e\	-ti-
!LO:N:vis=0	!	!	!	!LO:N:vis=0	!
1B\;	-as	.	.	1d\;	-as.
==	==	==	==	==	==
*-	*-	*-	*-	*-	*-
!!!system-decoration: [(s1,s2,s3)]
!!!RDF**kern: < = below
!!!RDF**kern: l = terminal long
!!!EED: Andrzej Borzym
!!!EEV: 2021-08-04
!!!ENC: Tomasz Grochalski
!!!END: 2021-07-10
!!!YEC: Copyright 2022 Narodowy Instytut Fryderyka Chopina (https://polishscores.org)
!!!YEM: License CC-BY-4.0 (https://creativecommons.org/licenses/by/4.0)
